symbols/web/roller_skating/materialsymbolsoutlined/roller_skating_wght100_20px.svg

<svg xmlns="http://www.w3.org/2000/svg" height="20" width="20"><path d="M3.833 12.833V1.375h6.5v3.208q0 .709.427 1.292.428.583 1.178.813l2.187.604q.896.25 1.469 1 .573.75.573 1.708v2.833Zm.667-.666h11V10q0-.729-.438-1.292-.437-.562-1.166-.77l-2.188-.626q-.625-.187-1.104-.583-.479-.396-.708-1H7.708q-.146 0-.229-.083-.083-.084-.083-.229 0-.146.083-.229.083-.084.229-.084h2.021q-.041-.208-.052-.469-.01-.26-.01-.573H7.708q-.146 0-.229-.083-.083-.083-.083-.229 0-.146.083-.229.083-.083.229-.083h1.959V2.042H4.5Zm0 0Zm-.292 6.458q-.833 0-1.416-.583-.584-.584-.584-1.417 0-.833.584-1.417.583-.583 1.416-.583.834 0 1.417.583.583.584.583 1.417 0 .833-.583 1.417-.583.583-1.417.583Zm0-.667q.542 0 .938-.396.396-.395.396-.937t-.396-.937q-.396-.396-.938-.396-.541 0-.937.396-.396.395-.396.937t.396.937q.396.396.937.396Zm11.584.667q-.834 0-1.417-.583-.583-.584-.583-1.417 0-.833.583-1.417.583-.583 1.417-.583.833 0 1.416.583.584.584.584 1.417 0 .833-.584 1.417-.583.583-1.416.583Zm0-.667q.541 0 .937-.396.396-.395.396-.937t-.396-.937q-.396-.396-.937-.396-.542 0-.938.396-.396.395-.396.937t.396.937q.396.396.938.396ZM10 18.625q-.833 0-1.417-.583Q8 17.458 8 16.625q0-.833.583-1.417.584-.583 1.417-.583.833 0 1.417.583.583.584.583 1.417 0 .833-.583 1.417-.584.583-1.417.583Zm0-.667q.542 0 .938-.396.395-.395.395-.937t-.395-.937q-.396-.396-.938-.396-.542 0-.938.396-.395.395-.395.937t.395.937q.396.396.938.396Zm-5.792-1.333Zm5.792 0Zm5.792 0Z"/></svg>

<svg xmlns="http://www.w3.org/2000/svg" height="20" width="20"><path d="M3.833 12.833V1.375H10.333V4.583Q10.333 5.292 10.76 5.875Q11.188 6.458 11.938 6.688L14.125 7.292Q15.021 7.542 15.594 8.292Q16.167 9.042 16.167 10V12.833ZM4.5 12.167H15.5V10Q15.5 9.271 15.062 8.708Q14.625 8.146 13.896 7.938L11.708 7.312Q11.083 7.125 10.604 6.729Q10.125 6.333 9.896 5.729H7.708Q7.562 5.729 7.479 5.646Q7.396 5.562 7.396 5.417Q7.396 5.271 7.479 5.188Q7.562 5.104 7.708 5.104H9.729Q9.688 4.896 9.677 4.635Q9.667 4.375 9.667 4.062H7.708Q7.562 4.062 7.479 3.979Q7.396 3.896 7.396 3.75Q7.396 3.604 7.479 3.521Q7.562 3.438 7.708 3.438H9.667V2.042H4.5ZM4.5 12.167Q4.5 12.167 4.5 12.167Q4.5 12.167 4.5 12.167Q4.5 12.167 4.5 12.167Q4.5 12.167 4.5 12.167Q4.5 12.167 4.5 12.167Q4.5 12.167 4.5 12.167Q4.5 12.167 4.5 12.167Q4.5 12.167 4.5 12.167ZM4.208 18.625Q3.375 18.625 2.792 18.042Q2.208 17.458 2.208 16.625Q2.208 15.792 2.792 15.208Q3.375 14.625 4.208 14.625Q5.042 14.625 5.625 15.208Q6.208 15.792 6.208 16.625Q6.208 17.458 5.625 18.042Q5.042 18.625 4.208 18.625ZM4.208 17.958Q4.75 17.958 5.146 17.562Q5.542 17.167 5.542 16.625Q5.542 16.083 5.146 15.688Q4.75 15.292 4.208 15.292Q3.667 15.292 3.271 15.688Q2.875 16.083 2.875 16.625Q2.875 17.167 3.271 17.562Q3.667 17.958 4.208 17.958ZM15.792 18.625Q14.958 18.625 14.375 18.042Q13.792 17.458 13.792 16.625Q13.792 15.792 14.375 15.208Q14.958 14.625 15.792 14.625Q16.625 14.625 17.208 15.208Q17.792 15.792 17.792 16.625Q17.792 17.458 17.208 18.042Q16.625 18.625 15.792 18.625ZM15.792 17.958Q16.333 17.958 16.729 17.562Q17.125 17.167 17.125 16.625Q17.125 16.083 16.729 15.688Q16.333 15.292 15.792 15.292Q15.25 15.292 14.854 15.688Q14.458 16.083 14.458 16.625Q14.458 17.167 14.854 17.562Q15.25 17.958 15.792 17.958ZM10 18.625Q9.167 18.625 8.583 18.042Q8 17.458 8 16.625Q8 15.792 8.583 15.208Q9.167 14.625 10 14.625Q10.833 14.625 11.417 15.208Q12 15.792 12 16.625Q12 17.458 11.417 18.042Q10.833 18.625 10 18.625ZM10 17.958Q10.542 17.958 10.938 17.562Q11.333 17.167 11.333 16.625Q11.333 16.083 10.938 15.688Q10.542 15.292 10 15.292Q9.458 15.292 9.062 15.688Q8.667 16.083 8.667 16.625Q8.667 17.167 9.062 17.562Q9.458 17.958 10 17.958ZM4.208 16.625Q4.208 16.625 4.208 16.625Q4.208 16.625 4.208 16.625Q4.208 16.625 4.208 16.625Q4.208 16.625 4.208 16.625Q4.208 16.625 4.208 16.625Q4.208 16.625 4.208 16.625Q4.208 16.625 4.208 16.625Q4.208 16.625 4.208 16.625ZM10 16.625Q10 16.625 10 16.625Q10 16.625 10 16.625Q10 16.625 10 16.625Q10 16.625 10 16.625Q10 16.625 10 16.625Q10 16.625 10 16.625Q10 16.625 10 16.625Q10 16.625 10 16.625ZM15.792 16.625Q15.792 16.625 15.792 16.625Q15.792 16.625 15.792 16.625Q15.792 16.625 15.792 16.625Q15.792 16.625 15.792 16.625Q15.792 16.625 15.792 16.625Q15.792 16.625 15.792 16.625Q15.792 16.625 15.792 16.625Q15.792 16.625 15.792 16.625Z"/></svg>
